src/assets/images/landing/thirdPartyLogos/twitter_logo_blue.svg

<svg width="41" height="34" viewBox="0 0 41 34" fill="none" xmlns="http://www.w3.org/2000/svg">
<path d="M40.042 4.59492C38.5703 5.24825 36.9887 5.68825 35.3287 5.88658C37.0237 4.87158 38.3253 3.26325 38.937 1.34658C37.352 2.28658 35.5953 2.96992 33.7253 3.33825C32.2303 1.74325 30.0953 0.746582 27.7353 0.746582C22.437 0.746582 18.5437 5.68992 19.7403 10.8216C12.922 10.4799 6.87533 7.21325 2.82699 2.24825C0.676992 5.93658 1.71199 10.7616 5.36533 13.2049C4.02199 13.1616 2.75533 12.7932 1.65033 12.1782C1.56033 15.9799 4.28533 19.5366 8.23199 20.3282C7.07699 20.6416 5.81199 20.7149 4.52533 20.4682C5.56866 23.7282 8.59866 26.0999 12.192 26.1666C8.74199 28.8716 4.39533 30.0799 0.0419922 29.5666C3.67366 31.8949 7.98866 33.2533 12.622 33.2533C27.8587 33.2533 36.467 20.3849 35.947 8.84325C37.5503 7.68492 38.942 6.23992 40.042 4.59492Z" fill="#51BBFE"/>
</svg>

<svg xmlns="http://www.w3.org/2000/svg" width="41" height="34" fill="none"><path fill="#51BBFE" d="M40.042 4.595a16.4 16.4 0 0 1-4.713 1.292 8.22 8.22 0 0 0 3.608-4.54 16.4 16.4 0 0 1-5.212 1.991 8.2 8.2 0 0 0-5.99-2.591c-5.298 0-9.191 4.943-7.995 10.075-6.818-.342-12.865-3.609-16.913-8.574-2.15 3.689-1.115 8.514 2.538 10.957a8.2 8.2 0 0 1-3.715-1.027c-.09 3.802 2.635 7.359 6.582 8.15a8.2 8.2 0 0 1-3.707.14 8.21 8.21 0 0 0 7.667 5.699 16.5 16.5 0 0 1-12.15 3.4 23.23 23.23 0 0 0 12.58 3.686c15.237 0 23.845-12.868 23.325-24.41a16.7 16.7 0 0 0 4.095-4.248"/></svg>
